azure-patterns/svg-cost-management-alt.svg

<svg xmlns="http://www.w3.org/2000/svg" viewBox="0 0 116 130">
                                
                            
  <path d="M54.2485 0.994139L3.84118 29.7375C1.46582 31.0921 0 33.6215 0 36.3625V93.6375C0 96.3785 1.46582 98.9079 3.84118 100.262L54.2485 129.006C56.5737 130.331 59.4236 130.331 61.7515 129.006L112.159 100.262C114.534 98.9079 116 96.3785 116 93.6375V36.3625C116 33.6215 114.534 31.0921 112.159 29.7375L61.7515 0.994139C59.4236 -0.33138 56.5764 -0.33138 54.2485 0.994139Z" fill="#1A1A1F"></path>
  <path d="M58.0002 27.6948C62.2227 27.6948 65.6456 24.2596 65.6456 20.0221C65.6456 15.7847 62.2227 12.3495 58.0002 12.3495C53.7777 12.3495 50.3547 15.7847 50.3547 20.0221C50.3547 24.2596 53.7777 27.6948 58.0002 27.6948Z" fill="#303030"></path>
  <path d="M58.0002 117.65C62.2227 117.65 65.6456 114.215 65.6456 109.977C65.6456 105.74 62.2227 102.305 58.0002 102.305C53.7777 102.305 50.3547 105.74 50.3547 109.977C50.3547 114.215 53.7777 117.65 58.0002 117.65Z" fill="#303030"></path>
  <path d="M84.4187 79.9351C84.4187 91.161 73.3248 99.3073 58.0366 99.3073C44.5964 99.3073 36.1706 94.2248 32.3057 83.7741L45.4268 81.295C47.1247 84.9753 50.8736 89.1767 59.1307 89.1767C67.393 89.1767 70.4723 84.1974 70.4723 81.0596C70.4723 74.5325 62.6291 72.2704 59.2546 71.601C44.9312 68.7489 34.7918 65.4602 34.7918 49.0011C34.7918 35.4866 47.3118 30.6925 58.0339 30.6925C69.7631 30.6925 77.3901 34.5844 81.3341 42.5851L69.9978 46.1966C67.6198 42.1274 63.5598 39.9764 58.2343 39.9764C50.457 39.9764 48.4007 45.3552 48.4007 48.1994C48.4007 52.1177 52.2946 55.5519 58.3187 56.9568C65.8745 58.7162 71.1815 60.0682 74.2766 61.3752C79.1802 63.4468 84.4187 69.4103 84.4187 79.9351Z" fill="#303030"></path>
</svg>

<svg xmlns="http://www.w3.org/2000/svg" viewBox="0 0 116 130"><path d="M54.248.994L3.842 29.738A7.623 7.623 0 0 0 0 36.361v57.276a7.622 7.622 0 0 0 3.841 6.624l50.407 28.744a7.578 7.578 0 0 0 7.504 0l50.407-28.744A7.622 7.622 0 0 0 116 93.638V36.361a7.624 7.624 0 0 0-3.841-6.625L61.751.995a7.575 7.575 0 0 0-7.502 0z" fill="#1A1A1F"/><path d="M58 27.695c4.223 0 7.646-3.435 7.646-7.673 0-4.237-3.423-7.672-7.646-7.672-4.222 0-7.645 3.435-7.645 7.672 0 4.238 3.423 7.673 7.645 7.673zM58 117.65c4.223 0 7.646-3.435 7.646-7.673 0-4.237-3.423-7.672-7.646-7.672-4.222 0-7.645 3.435-7.645 7.672 0 4.238 3.423 7.673 7.645 7.673zM84.419 79.935c0 11.226-11.094 19.372-26.382 19.372-13.44 0-21.866-5.082-25.731-15.533l13.12-2.479c1.699 3.68 5.448 7.882 13.705 7.882 8.262 0 11.341-4.98 11.341-8.117 0-6.528-7.843-8.79-11.217-9.459-14.324-2.852-24.463-6.14-24.463-22.6 0-13.514 12.52-18.308 23.242-18.308 11.73 0 19.356 3.891 23.3 11.892l-11.336 3.612c-2.378-4.07-6.438-6.22-11.764-6.22-7.777 0-9.833 5.378-9.833 8.222 0 3.919 3.894 7.353 9.918 8.758 7.555 1.76 12.862 3.111 15.958 4.418 4.903 2.072 10.142 8.035 10.142 18.56z" fill="#303030"/></svg>
